!!!OTL: BLEIBT BEISAMMEN DENN ES DAUERT NET MEHR LANGE
!!!ARE: Europa, Mitteleuropa, Deutschland, Hessen, Darmstadt, Messel
!!!SCT: E1179
!!!YEM: Copyright 1995, estate of Helmut Schaffrath.
**kern
*ICvox
*Ivox
*M2/4
*k[f#c#]
*D:
{8F#
8G
=1
8A
8A
8A
8A
=2
8A
8A}
{8d
8d
=3
8B
8B
8B
8B
=4
8B
8B}
{8e
8e
=5
4c#
8A
8A
=6
4A}
{8B
8c#
=7
8d
8d
8d
8d
=8
8d
8d}
==
!!!AGN: Trink -, Zech - Lied, Scherz
!!!ONB: ESAC (Essen Associative Code) Database: ERK3
!!!AMT: simple duple
!!!AIN: vox
!!!EED: Helmut Schaffrath
!!!EEV: 1.0
*-
